_uploads/etsy-logo.svg

<?xml version="1.0" encoding="UTF-8"?>
<svg width="315px" height="138px" viewBox="0 0 315 138" version="1.1" xmlns="http://www.w3.org/2000/svg" xmlns:xlink="http://www.w3.org/1999/xlink">
    <!-- Generator: Sketch 56.3 (81716) - https://sketch.com -->
    <title>Artboard</title>
    <desc>Created with Sketch.</desc>
    <defs>
        <polygon id="path-1" points="0 0 180 0 180 85 0 85"></polygon>
    </defs>
    <g id="Artboard" stroke="none" stroke-width="1" fill="none" fill-rule="evenodd">
        <g id="etsy_logo_bw" transform="translate(68.000000, 29.000000)">
            <mask id="mask-2" fill="white">
                <use xlink:href="#path-1"></use>
            </mask>
            <g id="Clip-2"></g>
            <path d="M72.3932473,9.16753927 C70.5163853,19.9371728 65.3326713,23.8534031 58.9870904,24.565445 L58.9870904,27.6806283 L66.9414101,27.6806283 L66.9414101,55.0052356 C66.9414101,62.6596859 72.0357498,66.3979058 78.8282026,66.3979058 C84.101291,66.3979058 89.5531281,64.1727749 91.4299901,59.5445026 L89.5531281,57.1413613 C88.6593843,58.6544503 85.7994042,60.8795812 82.224429,60.8795812 C78.2919563,60.8795812 76.1469712,58.2094241 76.1469712,51.4450262 L76.1469712,27.3246073 L89.3743793,28.3036649 L90.0893744,22.2513089 L76.1469712,22.7853403 L76.1469712,9.16753927 L72.3932473,9.16753927 Z M100.546177,51.1780105 L97.1499503,51.2670157 C97.5968222,55.539267 97.6861966,59.8115183 97.1499503,63.7277487 C97.1499503,63.7277487 103.942403,66.2198953 110.82423,66.2198953 C120.119166,66.2198953 127.537239,61.7696335 127.537239,53.1361257 C127.537239,38.0052356 105.014896,40.408377 105.014896,30.2617801 C105.014896,26.078534 108.857994,24.4764398 112.790467,24.4764398 C116.097319,24.4764398 118.77855,25.6335079 119.314796,27.3246073 L121.549156,34 L124.856008,33.8219895 C125.034757,30.2617801 125.30288,26.1675393 125.839126,22.8743455 C122.979146,21.6282723 116.991063,20.9162304 113.237339,20.9162304 C104.478649,20.9162304 97.4180735,24.7434555 97.4180735,33.2879581 C97.4180735,48.2408377 119.404171,44.947644 119.404171,56.1623037 C119.404171,59.9005236 116.991063,62.7486911 111.6286,62.7486911 C106.53426,62.7486911 104.031778,60.1675393 103.048659,57.5863874 L100.546177,51.1780105 Z M137.100298,79.9267016 C134.419067,79.9267016 133.614697,78.6806283 133.2572,76.9005236 L131.916584,69.9581152 L128.16286,70.1361257 C127.626614,74.2303665 126.822244,78.8586387 125.749752,82.5078534 C128.252234,84.1989529 131.290963,85 135.402185,85 C141.479643,85 150.595829,83.3089005 158.818272,63.9947644 L173.118173,30.2617801 C174.28004,27.591623 174.637537,27.2356021 178.123138,25.9005236 L180,25.1884817 L180,22.0732984 L171.509434,22.5183246 L162.482622,22.0732984 L162.482622,25.1884817 L164.806356,25.9005236 C167.130089,26.6125654 168.202582,27.4136126 168.202582,29.2827225 C168.202582,30.2617801 167.934459,30.7068063 167.398213,31.9528796 C166.415094,34.4450262 160.069513,50.0209424 156.94141,56.7853403 C153.008937,46.9947644 147.646475,32.3979058 147.020854,30.2617801 C146.842105,29.7277487 146.752731,29.2827225 146.752731,28.8376963 C146.752731,27.4136126 147.735849,26.2565445 149.880834,25.8115183 L152.830189,25.1884817 L152.830189,22.0732984 L140.585899,22.5183246 L130.844091,22.0732984 L130.844091,25.1884817 L132.45283,25.7225131 C134.776564,26.5235602 135.044687,26.7905759 136.564052,30.1727749 C142.730884,44.0575916 149.612711,61.7696335 151.847071,67.5549738 C147.020854,77.2565445 141.300894,79.9267016 137.100298,79.9267016 Z M19.3048659,6.67539267 C19.3048659,5.78534031 19.3942403,5.2513089 20.9136048,5.2513089 L41.3803376,5.2513089 C44.9553128,5.2513089 46.9215492,8.27748691 48.3515392,13.973822 L49.5134062,18.513089 L52.999007,18.513089 C53.6246276,5.60732984 54.1608739,0 54.1608739,0 C54.1608739,0 45.4021847,0.979057592 40.2184707,0.979057592 L14.0317776,0.979057592 L0,0.534031414 L0,4.27225131 L4.73684211,5.16230366 C8.04369414,5.78534031 8.84806356,6.4973822 9.11618669,9.52356021 C9.11618669,9.52356021 9.38430983,18.4240838 9.38430983,33.1099476 C9.38430983,47.7958115 9.11618669,56.6073298 9.11618669,56.6073298 C9.11618669,59.2774869 8.04369414,60.2565445 4.73684211,60.8795812 L0,61.7696335 L0,65.5078534 L14.0317776,65.0628272 L37.4478649,65.0628272 C42.7209533,65.0628272 54.9652433,65.5078534 54.9652433,65.5078534 C55.2333664,62.3036649 57.020854,47.7958115 57.2889772,46.1937173 L53.9821251,46.1937173 L50.4965243,54.1151832 C47.7259186,60.3455497 43.7040715,60.7905759 39.2353525,60.7905759 L25.91857,60.7905759 C21.449851,60.7905759 19.3048659,59.0104712 19.3048659,55.1832461 L19.3048659,34.8900524 C19.3048659,34.8900524 29.225422,34.8900524 32.4428997,35.1570681 C34.9453823,35.3350785 36.4647468,36.0471204 37.2691162,39.5183246 L38.3416087,44.1465969 L42.1847071,44.1465969 L41.9165839,32.486911 L42.4528302,20.7382199 L38.6097319,20.7382199 L37.3584906,25.9005236 C36.5541212,29.2827225 36.0178749,29.9057592 32.5322741,30.2617801 C27.9741807,30.7068063 19.3048659,30.617801 19.3048659,30.617801 L19.3048659,6.67539267 L19.3048659,6.67539267 Z" id="Fill-1" fill="#1A1919" mask="url(#mask-2)"></path>
        </g>
    </g>
</svg>

<svg fill="none" viewBox="0 0 180 85" width="100" xmlns="http://www.w3.org/2000/svg" xmlns:xlink="http://www.w3.org/1999/xlink"><g><path clip-rule="evenodd" d="m72.3932 9.16754c-1.8768 10.76966-7.0605 14.68586-13.4061 15.39786v3.1152h7.9543v27.3246c0 7.6545 5.0943 11.3927 11.8868 11.3927 5.2731 0 10.7249-2.2251 12.6018-6.8534l-1.8769-2.4031c-.8937 1.5131-3.7537 3.7382-7.3287 3.7382-3.9324 0-6.0774-2.6702-6.0774-9.4346v-24.1204l13.2274.9791.715-6.0524-13.9424.534v-13.61776zm28.1528 42.01046-3.3961.089c.4469 4.2723.5363 8.5445 0 12.4607 0 0 6.7921 2.4922 13.6741 2.4922 9.295 0 16.713-4.4503 16.713-13.0838 0-15.1309-22.522-12.7277-22.522-22.8743 0-4.1833 3.843-5.7854 7.775-5.7854 3.307 0 5.989 1.1571 6.525 2.8482l2.234 6.6754 3.307-.178c.179-3.5602.447-7.6545.983-10.9477-2.86-1.246-8.848-1.9581-12.602-1.9581-8.758 0-15.8189 3.8273-15.8189 12.3718 0 14.9528 21.9859 11.6596 21.9859 22.8743 0 3.7382-2.413 6.5864-7.775 6.5864-5.095 0-7.597-2.5812-8.58-5.1623zm36.554 28.7487c-2.681 0-3.485-1.2461-3.843-3.0262l-1.34-6.9424-3.754.178c-.536 4.0943-1.341 8.7225-2.413 12.3718 2.502 1.6911 5.541 2.4921 9.652 2.4921 6.078 0 15.194-1.6911 23.416-21.0052l14.3-33.733c1.162-2.6702 1.52-3.0262 5.005-4.3613l1.877-.712v-3.1152l-8.491.445-9.026-.445v3.1152l2.323.712c2.324.7121 3.397 1.5131 3.397 3.3822 0 .9791-.269 1.4241-.805 2.6702-.983 2.4921-7.328 18.068-10.457 24.8324-3.932-9.7905-9.295-24.3874-9.92-26.5235-.179-.5341-.268-.9791-.268-1.4241 0-1.4241.983-2.5812 3.128-3.0262l2.949-.623v-3.1152l-12.244.445-9.742-.445v3.1152l1.609.534c2.324.8011 2.592 1.0681 4.111 4.4503 6.167 13.8848 13.049 31.5968 15.283 37.3822-4.826 9.7015-10.546 12.3717-14.747 12.3717zm-117.7951-73.25131c0-.89005.0893-1.42408 1.6087-1.42408h20.4667c3.575 0 5.5412 3.02618 6.9712 8.72249l1.1619 4.5393h3.4856c.6256-12.90577 1.1619-18.5131 1.1619-18.5131s-8.7587.979058-13.9424.979058h-26.1867l-14.0318-.445027v3.738219l4.73684.89005c3.30685.62304 4.11122 1.33508 4.37935 4.36126 0 0 .26812 8.90054.26812 23.58634 0 14.6859-.26812 23.4974-.26812 23.4974 0 2.6702-1.0725 3.6492-4.37935 4.2723l-4.73684.89v3.7383l14.0318-.4451h23.4161c5.2731 0 17.5173.4451 17.5173.4451.2682-3.2042 2.0557-17.7121 2.3238-19.3142h-3.3069l-3.4856 7.9215c-2.7706 6.2304-6.7924 6.6754-11.2611 6.6754h-13.3168c-4.4687 0-6.6137-1.7801-6.6137-5.6074v-20.2931s9.9205 0 13.138.267c2.5025.178 4.0218.89 4.8262 4.3612l1.0725 4.6283h3.8431l-.2681-11.6597.5362-11.7487h-3.8431l-1.2512 5.1623c-.8044 3.3822-1.3406 4.0053-4.8262 4.3613-4.5581.445-13.2274.356-13.2274.356z" fill="#000" fill-rule="evenodd"/></g></svg>
